X: 1
T: Tantz-a-Freilekhs    [Am]
O: Shloimke Beckerman
Z: 2020 John Chambers <jc:trillian.mit.edu>
Z: handout at Watertown Klezmer session 2020-1-12 (tr. Steve Rauch)
M: 2/4
L: 1/16
K: Am
"^A"[|] Ace ||\
"Am"a2aa "E"gfed | "Am"e2ce "E"dcBc | "Am"AcBc "E"dcBc | "Am"Acea ceac' ||\
"E"ba^ga bgaf |
"Am"e2ee "E"dBcd | "Am"ef"E"de "Am"cd"E"Bc |1 "Am"A4 z :|2 "Am"A8 \
"^B"|:\
"Am"abc'2- c'2ba | "E"b2^g2 e4 | "Am"a2b2 c'2ba |
"E"b2e'2 e4 ||\
"Am"c'b_ba "E"_ag_gf | "Am"edce "Dm"d4 | "Am"cBBc "Gm"c_BBA | "Am"A8 \
"^C"::\
"C"g4 gffe | g2gg gffe |
g^fga _bagf | g2gg gffe ||\
"D"g2gg gffe | edef edce | "G"gefd ecdB | "C"c6 e2 :|
"^D"|:::\
a3e "E"c'ba^g | "Am"a2ae "E"gfed | "Am"cded "E"c2B2 |1,3 "Am"A2c2 "E7"e2^g2 :|2,4 "Am"A8 :|
